!!!COM: Chopin, Frederic
!!!CDT: 1810///-1849///
!!!OTL: Mazurka in A-flat Major, Op. 41, No. 4
!!!OPS: Op. 41
!!!ONM: No. 4
!!!ODT: 1839///
!!!OMD: Allegretto.
!!!AIN: piano
**kern	**kern	**dynam
*staff2	*staff1	*staff1/2
*Ipiano	*Ipiano	*Ipiano
*I"29.	*I"29.	*
*>[A,B,B,C]	*>[A,B,B,C]	*>[A,B,B,C]
*>norep[A,B,C]	*>norep[A,B,C]	*>norep[A,B,C]
*clefF4	*clefG2	*clefG2
*k[b-e-a-d-]	*k[b-e-a-d-]	*k[b-e-a-d-]
*A-:	*A-:	*A-:
*M3/4	*M3/4	*M3/4
*MM118	*MM118	*MM118
*>A	*>A	*>A
!	!LO:TX:b:i:t=dolce.	!
4r	(4e-	.
=1	=1	=1
*ped	*	*
4AAA-	8a-L	.
.	8cc	.
4E- 4c 4e-	8ee-	.
.	8een	.
4E- 4d- 4e-	8ff	.
*Xped	*	*
.	8gJ	.
=2	=2	=2
*ped	*	*
4AA-	8a-L)	.
.	(8cc	.
.	(8qff	.
4A- 4c 4g-	8ee-)	.
.	8ddnJ	.
*Xped	*	*
4A- 4c 4g-	4ee-^)	.
=3	=3	=3
*ped	*	*
4D-	(8dd-XL	.
.	8ff	.
4A- 4d- 4f	8ggn	.
.	8bb-	.
4A- 4d- 4f	8aa-	.
*Xped	*	*
.	8ffJ	.
=4	=4	=4
*ped	*	*
4BB-	8dd-L)	.
.	(8een	.
.	(8qgg	.
4A- 4d- 4f	8ff)	.
.	8eeJ	.
*Xped	*	*
4A- 4d- 4f	4ff^)	.
=5	=5	=5
*ped	*	*
4E-X	(8gL>	.
.	8a-	.
4G 4d- 4e-X	8b-	.
.	8cc	.
4G 4d- 4e-	8dd-	.
*Xped	*	*
.	8bnJ	.
=6	=6	=6
*ped	*	*
4AA-	8ccL)	.
.	16r	.
.	(16dnk	.
.	(8qf	.
4E- 4A- 4c	8e-)	.
.	8dJ	.
*Xped	*	*
4E- 4A- 4c	4e-^)	.
=7	=7	=7
*ped	*	*
4EE-	8g (8b-L	.
.	8a- 8cc	.
4E- 4G 4d- 4e-	8b- 8dd-X	.
.	8cc 8ee-	.
4E- 4G 4d- 4e-	8dd- 8ff	.
*Xped	*	*
.	8bn 8ddnJ	.
=8	=8	=8
*ped	*	*
4AA-	8cc 8ee-L)	.
.	16r	.
.	(16dnk	.
.	(8qf	.
4E- 4A- 4c	8e-)	.
.	8dJ	.
*Xped	*	*
4E- 4A- 4c	4e-^)	.
=9	=9	=9
*ped	*	*
4AAA-	(8a-L	.
.	8cc	.
4E- 4c 4e-	8ee-	.
.	8een	.
4E- 4d- 4e-	8ff	.
*Xped	*	*
.	8gJ	.
=10	=10	=10
*ped	*	*
4AA-	8a-L)	.
.	(8cc	.
.	(8qff	.
4A- 4c 4g-	8ee-)	.
.	8ddnJ	.
*Xped	*	*
4A- 4c 4g-	4ee-^)	.
=11	=11	=11
*ped	*	*
4D-	(8dd-XL	.
.	8ff	.
4A- 4d- 4f	8ggn	.
.	8bb-	.
4A- 4d- 4f	8aa-	.
*Xped	*	*
.	8ffJ	.
=12	=12	=12
*ped	*	*
4BB-	8dd-L)	.
.	(8een	.
.	(8qgg	.
4A- 4d- 4f	8ff)	.
.	8eeJ	.
*Xped	*	*
4A- 4d- 4f	4ff^)	.
=13	=13	=13
*ped	*	*
4E-X	(8gL	.
.	8a-	.
4G 4d- 4e-X	8b-	.
.	8cc	.
4G 4d- 4e-	8dd-	.
*Xped	*	*
.	8bnJ	.
=14	=14	=14
*ped	*	*
4AA-	8ccL)	.
.	16r	.
.	(16dnk	.
.	(8qf	.
4E- 4A- 4c	8e-)	.
.	8dJ	.
*Xped	*	*
4E- 4A- 4c	4e-^)	.
=15	=15	=15
*ped	*	*
4EE-	8g (8b-L	.
.	8a- 8cc	.
4E- 4G 4d- 4e-	8b- 8dd-X	.
.	8cc 8ee-	.
4E- 4G 4d- 4e-	8dd- 8ff	.
*Xped	*	*
.	8bn 8ddnJ	.
=16	=16	=16
*ped	*	*
4AA-	8cc 8ee-L)	.
.	16r	.
.	(16dnk	.
.	(8qf	.
4E- 4A- 4c	8e-)	.
.	8dJ	.
*Xped	*	*
4E- [4A- 4c	[4e-^)	.
=17	=17	=17
*^	*^	*
4A-]	2D-X	(2f	4e-]	.
2B-	.	.	2d-X	.
.	[4E-	[4g	.	.
*v	*v	*	*	*
=18	=18	=18	=18
*ped	*	*	*
4AA- 4E-]	8.g]L	2c	.
.	16a-k	.	.
4r	8a-	.	.
.	8b-J	.	.
*Xped	*	*	*
[>4A- 4e-	[4cc	4g-	.
=19	=19	=19	=19
2D- 2A-]	8cc]L	2f	.
.	8dd-J	.	.
.	4.cc	.	.
4E- 4d-	.	4gn	.
.	8b-	.	.
=20	=20	=20	=20
[2.A-	8dd-L	8fL	.
.	8cc	8e-	.
.	(8qdd-	.	.
.	8cc)	8e-	.
.	8bnJ	8dnJ	.
.	4cc	[4e-	.
=21	=21	=21	=21
*^	*	*	*
4A-]	2D-X	2f	4e-]	.
2B-X	.	.	2d-X	.
.	[>4E-	[4g	.	.
*v	*v	*	*	*
=22	=22	=22	=22
*ped	*	*	*
4AA- 4E-]	8.gL]	2c	.
.	16a-k	.	.
4r	8a-	.	.
.	8b-J	.	.
*Xped	*	*	*
4AA- 4F	[4cc	4dn	.
=23	=23	=23	=23
2GG 2G	8ccL]	4e-	.
.	8ddnJ	.	.
.	4.bn	4dn	.
(<4G 4dn	.	4f	.
.	8g	.	.
=24	=24	=24	=24
*^	*	*	*
2.G	8.CL	8ddnL	[2.e-	<
.	.	8ee-J	.	.
.	16DnJk	.	.	.
.	4F	2cc	.	.
.	8E-L	.	.	.
.	8DJ	.	.	[[
=25	=25	=25	=25	=25
4A-	2D-X)	2f	4e-]	.
2B-	.	.	2d-X	.
.	[>4E-	[4g	.	.
*v	*v	*	*	*
=26	=26	=26	=26
*ped	*	*	*
4AA- 4E-]	8.gL]	2c	.
.	16a-k	.	.
4r	8a-	.	.
.	8b-J	.	.
*Xped	*	*	*
[4A- 4e-	[4cc	4g-	.
=27	=27	=27	=27
2D- 2A-]	8ccL]	2f	.
.	8dd-J	.	.
.	4.cc	.	.
4E- 4d-	.	4gn	.
.	8b-	.	.
=28	=28	=28	=28
[2.A-	8dd-L	8fL	.
.	8cc	8e-	.
.	(8qdd-	.	.
.	8cc)	8e-	.
.	8bnJ	8dnJ	.
.	4cc	[4e-	.
=29	=29	=29	=29
*^	*	*	*
4A-]	2D-X	2f	4e-]	.
2B-X	.	.	2d-X	.
.	[>4E-	[4g	.	.
*v	*v	*	*	*
=30	=30	=30	=30
*ped	*	*	*
4AA- 4E-]	8.gL]	2c	.
.	16a-k	.	.
4r	8a-	.	.
.	8b-J	.	.
*Xped	*	*	*
4AA- 4F	[4cc	4dn	.
=31	=31	=31	=31
2GG 2G	8ccL]	4e-	.
.	8ddnJ	.	.
.	4.bn	4dn	.
4G 4dn	.	4f	.
.	8g	.	.
=32	=32	=32	=32
2C 2G	8ddnL	2e-	.
.	8ee-J	.	.
.	4.cc)	.	.
[4C [4G	.	[4e-	.
.	(8ee-	.	.
=33	=33	=33	=33
4C] 4G]	[2ee-^	4e-]	.
4C 4G 4Bn	.	8fL	.
.	.	8gJ	.
[4C [4G [4B	8ee-L]	[4f	.
.	8ee-J	.	.
=34	=34	=34	=34
4C] 4G] 4B]	2ddn	8fL]	.
.	.	8fJ	.
4C 4G 4c	.	4e-	.
[4C [4G [4c	4cc)	4e-	.
=35	=35	=35	=35
4C] 4G] 4c]	([2ee-^	8gL	.
.	.	8a-	.
4C 4G 4Bn	.	8g	.
.	.	8a-J	.
[4C [4G [4B	8ee-L]	[4f	.
.	8ee-J	.	.
=36	=36	=36	=36
4C] 4G] 4B]	4ddn	8fL]	.
.	.	8fJ	.
4C 4G 4c	2cc)	2e-	.
4C 4G 4c	.	.	.
=37	=37	=37	=37
*ped	*	*	*
4CC 4GG	([2ee-^	4r	.
4C 4G 4Bn	.	8gL	.
.	.	8a-J	.
*Xped	*	*	*
[4C [4G [4B	8ee-L]	[4f	.
.	8ee-J	.	.
=38	=38	=38	=38
4C] 4G] 4B]	2ddn	8fL]	.
.	.	8fJ	.
4C 4G 4c	.	4e-	.
[4C [4G [4c	4cc)	4e-	.
=39	=39	=39	=39
*ped	*	*	*
4C] 4G] 4c]	([2ee-	8gL	.
.	.	8a-	.
*Xped	*	*	*
4C 4G 4Bn	.	8g	.
.	.	8a-J	.
[4C [4G [4B	8ee-L]	[4f	.
.	8ee-J	.	.
=40	=40	=40	=40
4C] 4G] 4B]	4ddn	8fL]	.
.	.	8fJ	.
4C 4G 4c	2cc)	2en	.
4C 4G 4c	.	.	.
*	*v	*v	*
=41	=41	=41
*ped	*	*
4CC	4r	.
4G 4en	(8gL	.
*Xped	*	*
.	8g#	.
4G 4f	8an	.
.	8GJ	.
=42	=42	=42
4r	4c')	.
.	8qan	.
*ped	*	*
4G 4en	(8gL	.
.	8f#J	.
*Xped	*	*
4G 4e	4g	.
=43	=43	=43
*ped	*	*
4C	4c')	.
4G 4en	(8gL	.
*Xped	*	*
.	8bn	.
[4G [4f	8an	.
.	8BnJ	.
=44	=44	=44
4G] 4f]	2.c^>)	.
*ped	*	*
4G 4en	.	.
[4C	.	.
=45	=45	=45
*^	*	*
*Xped	*	*	*
!	!	!LO:TX:b:i:t=sotto voce	!
4r	2C_	(>2en	.
8GL	.	.	.
8G#J	.	.	.
[4An	8CL]	[4f	.
.	8BBnJ	.	.
=46	=46	=46	=46
4A]	2.C	8fL]	.
.	.	8en	.
.	.	(8qf	.
8GnL	.	8e)	.
8F#J	.	8d#J	.
[4G	.	[4e	.
=47	=47	=47	=47
4G]	[2C	4e]	.
8GL	.	8enL	.
8B-XJ	.	8gJ	.
4An	8CL]	4f	.
.	8BBnJ	.	.
*v	*v	*	*
=48	=48	=48
*ped	*	*
2C 2G	8enL	.
.	8BnJ	.
.	4c	pp
4r	8gL	.
*Xped	*	*
.	8bnJ	.
=49	=49	=49
2.r	2cc)	.
.	(8gL	.
.	8bnJ	.
=50	=50	=50
2.r	8ccL	.
.	8bn	.
.	8g	.
.	8ddn	.
.	8cc	.
.	8bJ	.
=51	=51	=51
2.r	8gL	<
.	8dd-X	.
.	8cc	.
.	8bn	.
.	8g	.
.	8dd-J	.
=52	=52	=52
2.r	8ccL	.
.	8bn	.
.	8b-	.
.	8dd-	.
.	8cc	.
.	8b-J)	[
=53!|:	=53!|:	=53!|:
*>B	*>B	*>B
*ped	*	*
4AAA-	(8a-L	f
.	8cc	.
4E- 4c 4e-	8ee-	.
.	8een	.
4E- 4d- 4e-	8ff	.
*Xped	*	*
.	8gJ	.
=54	=54	=54
*ped	*	*
4AA-	8a-L)	.
.	(8cc	.
.	(8qff	.
4A- 4c 4g-	8ee-X)	.
.	8ddnJ	.
*Xped	*	*
4A- 4c 4g-	4ee-^)	.
=55	=55	=55
*ped	*	*
4D-	(8dd-XL	.
.	8ff	.
4A- 4d- 4f	8ggn	.
.	8bb-	.
4A- 4d- 4f	8aa-	.
*Xped	*	*
.	8ffJ	.
=56	=56	=56
*ped	*	*
4BB-	8dd-L)	.
.	(8een	.
.	(8qgg	.
4A- 4d- 4f	8ff)	.
.	8eeJ	.
*Xped	*	*
4A- 4d- 4f	4ff^)	.
=57	=57	=57
*ped	*	*
4E-X	(8gL>	.
.	8a-	.
4G 4d- 4e-X	8b-	.
.	8cc	.
4G 4d- 4e-	8dd-	.
*Xped	*	*
.	8bnJ	.
=58	=58	=58
*ped	*	*
4AA-	8ccL)	.
.	16r	.
.	(16dnk	.
.	(8qf	.
4E- 4A- 4c	8e-)	.
.	8dJ	.
*Xped	*	*
4E- 4A- 4c	4e-^)	.
=59	=59	=59
*ped	*	*
4EE-	8g (8b-L	.
.	8a- 8cc	.
4E- 4G 4d- 4e-	8b- 8dd-X	.
.	8cc 8ee-	.
4E- 4G 4d- 4e-	8dd- 8ff	.
*Xped	*	*
.	8bn 8ddnJ	.
=60	=60	=60
*ped	*	*
4AA-	8cc 8ee-L)	.
.	16r	.
.	(16dnk	.
.	(8qf	.
4E- 4A- 4c	8e-)	.
.	8dJ	.
4E- [4A- 4c	[4e-^)	.
*Xped	*	*
=61:|!	=61:|!	=61:|!
*>C	*>C	*>C
*^	*^	*
4A-]	2D-	(2f	4e-]	.
2B-X	.	.	2d-X	.
.	[>4E-	[4g	.	.
*v	*v	*	*	*
=62	=62	=62	=62
*ped	*	*	*
4AA- 4E-]	8.gL]	2c	.
.	16a-k	.	.
4r	8a-	.	.
.	8b-J	.	.
*Xped	*	*	*
[>4A- 4e-	[4cc	4g-	.
=63	=63	=63	=63
2D- 2A-]	8ccL]	2f	.
.	8dd-J	.	.
.	4.cc	.	.
4E- 4d-	.	4gn	.
.	8b-	.	.
=64	=64	=64	=64
[2.A-	8dd-L	8fL	.
.	8cc	8e-	.
.	(8qdd-	.	.
.	8cc)	8e-	.
.	8bnJ	8dnJ	.
.	4cc)	[4e-	.
=65	=65	=65	=65
*^	*	*	*
4A-]	2D-X	(2f	4e-]	.
2B-X	.	.	2d-X	.
.	[>4E-	[4g	.	.
*v	*v	*	*	*
=66	=66	=66	=66
*ped	*	*	*
4AA- 4E-]	8.gL]	2c	.
.	16a-k	.	.
4r	8a-	.	.
*Xped	*	*	*
.	8b-J	.	.
4AA- 4F	[4cc	4dn	.
=67	=67	=67	=67
2GG 2G	8ccL]	4e-	.
.	8ddnJ	.	.
.	4.bn	4dn	.
(<4G 4dn	.	4f	.
.	8g	.	.
=68	=68	=68	=68
*^	*	*	*
2.G	8.CL	8ddnL	[2.e-	.
.	.	8ee-J	.	.
.	16DnJk	.	.	.
.	4F	2cc)	.	.
.	8E-L	.	.	.
.	8DJ	.	.	.
=69	=69	=69	=69	=69
4A-	2D-X)	(2f	4e-]	.
2B-	.	.	2d-X	.
.	[>4E-	[4g	.	.
*v	*v	*	*	*
=70	=70	=70	=70
*ped	*	*	*
4AA- 4E-]	8.gL]	2c	>
.	16a-k	.	.
4r	8a-	.	.
.	8b-J	.	.
[>4A- 4e-	[4cc	4g-	.
=71	=71	=71	=71
2D- 2A-]	8ccL]	2f	.
.	8dd-J	.	.
.	4.cc	.	.
4E- 4d-	.	4gn	.
.	8b-	.	.
=72	=72	=72	=72
[2.A-	8dd-L	8fL	.
.	8cc	8e-	.
.	(8qdd-	.	.
.	8cc)	8e-	.
.	8bnJ	8dnJ	.
.	4cc)	[4e-	.
=73	=73	=73	=73
*^	*	*	*
4A-]	2D-X	(2f	4e-]	.
2B-X	.	.	2d-X	.
.	[>4E-	[4g	.	.
*v	*v	*	*	*
=74	=74	=74	=74
2.AA-; 2.E-;]	8.gL]	2c	.
.	16a-k	.	.
.	8a-	.	.
.	8b-J	.	.
.	4cc;)	4e-;	.
*	*v	*v	*
==	==	==
*-	*-	*-
!!!SMS: Mikuli edition, G. Schirmer (1894-1898)
!!!ENC: Craig Stuart Sapp
!!!END: 2005/03/03
!!!EED: Craig Stuart Sapp
!!!EEV: 2020/07/29
!!!RDF**kern: > = above
!!!RDF**kern: < = below
!!!RDF**dynam: < = dimin.
